<?xml version="1.0" encoding="UTF-8"?>
<map version="1.10" tiledversion="1.11.2" orientation="orthogonal" renderorder="right-down" width="32" height="22" tilewidth="32" tileheight="32" infinite="0" nextlayerid="9" nextobjectid="26">
 <tileset firstgid="1" source="terrain.tsx"/>
 <layer id="1" name="GroundLayer" width="32" height="22">
  <data encoding="csv">
0,0,0,0,0,0,0,0,0,0,0,0,0,0,0,0,0,0,0,0,0,0,0,0,0,0,0,0,0,0,0,0,
0,581,581,581,581,581,581,581,581,581,581,581,581,581,581,581,709,581,581,581,581,581,581,581,581,581,581,581,581,581,581,0,
0,581,581,581,708,708,581,581,581,708,708,706,706,581,581,581,581,581,581,581,706,581,706,581,581,581,581,581,581,581,581,0,
0,581,581,581,581,581,581,709,581,581,581,581,581,709,581,706,581,581,581,581,708,706,706,581,581,581,581,581,581,581,581,0,
0,581,581,708,581,581,581,581,581,581,581,581,706,706,581,581,581,581,706,581,581,706,581,581,581,581,581,581,581,581,581,0,
705,705,705,581,581,581,581,581,581,581,708,581,581,581,706,706,581,709,581,581,581,581,581,581,581,581,581,581,581,581,581,0,
705,581,705,581,581,581,581,581,581,581,581,581,581,707,581,581,581,581,581,581,581,581,1156,581,581,581,581,1097,581,581,581,0,
705,705,705,707,581,708,581,581,581,707,581,581,581,709,581,707,581,706,581,1284,1285,1285,1285,1285,1286,581,706,706,581,581,581,0,
705,705,705,581,581,708,581,581,709,581,707,581,707,581,581,708,581,581,581,1348,1157,1413,1413,1413,1414,706,706,581,581,581,581,0,
705,581,705,581,581,581,581,581,581,581,581,581,581,581,581,581,581,581,1284,1222,1350,705,705,581,581,581,706,708,708,706,581,0,
709,581,581,581,708,581,581,581,708,581,581,581,581,1284,1285,1285,1285,1285,1222,1157,1414,581,581,581,581,581,708,708,708,706,581,0,
578,581,581,708,581,581,581,581,581,581,581,581,581,1348,1157,1413,1413,1413,1413,1414,581,706,581,709,581,581,706,706,708,706,581,0,
578,581,581,708,581,705,581,581,581,581,581,581,1284,1222,1350,581,581,581,581,581,581,581,581,705,581,581,581,706,581,581,581,0,
0,581,581,1503,1503,1284,1285,1285,1285,1285,1285,1285,1222,1157,1414,581,581,707,581,707,706,581,581,705,705,706,706,706,581,581,581,0,
0,581,581,1503,1503,1412,1413,1413,1413,1413,1413,1413,1413,1414,581,581,707,581,581,581,581,581,708,581,581,581,581,581,581,581,581,0,
0,1503,1503,1503,1503,505,505,505,581,705,705,581,581,581,581,581,581,581,581,581,581,581,581,581,581,705,706,706,581,581,581,0,
0,1503,1503,1503,1503,1503,1503,1503,581,581,581,581,581,581,581,581,708,581,581,581,718,718,581,581,581,709,581,581,581,581,581,0,
0,1503,1503,1503,581,581,581,581,581,581,581,581,581,581,581,581,581,581,581,581,581,581,581,581,581,581,581,581,581,581,581,0,
636,636,636,512,581,581,581,708,581,581,581,581,581,581,581,581,581,581,581,581,581,581,581,581,581,581,581,581,581,581,581,0,
1020,1018,1018,635,636,581,581,581,581,581,581,581,581,581,581,581,581,581,581,581,581,718,581,581,581,581,581,581,581,581,581,0,
1020,1018,1018,507,508,581,581,581,1095,581,581,581,581,581,581,581,581,581,581,581,581,506,581,581,718,718,718,718,718,581,581,0,
1020,1020,1020,571,0,0,0,0,0,0,0,0,0,0,0,0,0,0,0,0,0,573,955,952,952,952,952,952,952,952,952,952
</data>
 </layer>
 <layer id="3" name="GroundLayerMid" width="32" height="22">
  <data encoding="csv">
0,1400,1401,0,0,0,0,0,0,0,0,0,0,0,0,0,0,0,0,0,0,0,0,0,0,0,0,0,0,0,0,0,
0,1398,1399,0,0,0,0,0,0,0,0,0,0,0,0,0,0,0,0,0,0,0,0,0,0,0,0,0,0,0,0,0,
0,0,0,0,0,0,0,0,0,0,0,0,0,0,0,0,0,0,0,0,0,0,0,0,0,0,0,0,0,0,0,0,
0,0,0,0,0,720,720,0,0,0,0,0,0,0,0,0,0,0,0,0,0,0,0,0,0,0,0,0,0,0,0,0,
0,0,0,0,0,720,0,0,0,0,0,0,0,0,0,0,0,0,0,0,1400,1401,0,0,0,0,0,0,0,0,0,0,
0,0,0,0,0,0,0,0,0,0,0,0,0,0,0,0,0,0,0,0,1464,1465,0,0,0,0,1503,1503,1503,0,0,0,
0,0,0,0,0,0,0,0,0,0,0,0,0,0,0,0,0,0,0,0,1398,1399,0,0,0,0,1503,1503,1503,0,0,0,
0,720,0,720,0,0,0,0,0,0,0,720,0,0,0,0,0,0,0,0,0,0,0,0,0,0,1503,1503,1503,0,0,0,
0,0,0,0,0,0,0,0,0,0,0,0,0,1696,0,0,0,0,0,0,0,0,0,0,0,0,0,0,0,0,0,0,
0,0,0,0,0,0,0,0,0,0,0,0,0,232,720,232,232,0,232,0,0,0,0,0,0,0,0,0,0,0,0,0,
0,0,0,0,0,0,0,0,0,525,526,527,722,232,0,0,0,0,0,0,0,0,0,0,0,0,0,0,0,0,0,0,
0,720,720,0,0,0,0,0,400,589,590,591,722,232,0,0,0,0,0,0,0,0,0,0,0,0,0,0,0,0,0,0,
0,0,0,0,0,0,0,0,464,653,654,655,0,0,0,722,0,720,0,0,0,0,0,0,0,0,0,0,0,0,0,0,
0,0,0,0,0,0,0,0,0,0,0,0,0,0,0,0,0,720,720,0,0,0,0,0,0,0,0,0,0,0,0,0,
0,0,0,0,0,1728,0,0,0,0,0,0,0,0,0,0,0,0,0,0,0,0,0,0,0,0,0,0,0,0,0,0,
0,0,0,0,313,1144,0,0,1144,0,0,1144,0,0,0,0,1503,1503,1503,1503,0,720,720,0,0,0,0,0,0,0,0,0,
0,0,0,0,0,0,0,0,1600,0,0,0,0,0,0,1503,1503,1788,1788,1503,0,0,0,0,0,0,0,0,0,0,0,0,
0,0,0,0,186,1664,1664,1664,1600,1728,1728,1728,1728,1728,1728,0,0,1322,1323,0,1728,1728,0,0,0,0,0,0,0,0,0,0,
0,0,0,0,1503,0,0,0,250,498,2147484146,499,1728,1728,1728,0,1643,1322,1323,2147485291,1728,1728,670,0,0,0,0,0,0,0,0,0,
0,0,1696,0,0,754,502,0,0,0,0,2684355058,497,687,1728,1728,1453,1578,1579,2147485101,1728,1728,734,0,0,0,0,0,0,0,0,0,
0,0,0,0,0,498,2684355062,0,1095,0,0,2147484278,630,628,629,505,505,505,505,505,505,0,798,0,0,0,0,0,0,0,0,0,
0,0,0,0,0,0,0,0,0,0,0,0,0,0,0,0,0,0,0,0,0,0,0,0,0,0,0,0,0,0,0,0
</data>
 </layer>
 <layer id="8" name="GroundLayerFore" width="32" height="22">
  <data encoding="csv">
0,0,0,101,102,103,0,0,0,0,0,0,0,0,0,0,0,0,0,0,0,0,0,0,0,0,0,0,0,0,0,0,
0,0,0,165,166,167,0,0,0,0,0,0,0,0,0,0,0,0,0,0,0,0,0,0,0,0,0,0,0,0,0,0,
0,0,0,0,0,0,0,0,0,0,0,0,0,0,0,0,0,0,0,0,0,0,0,0,0,0,0,0,0,0,0,0,
0,0,0,0,0,0,0,0,0,0,0,0,0,0,0,0,0,0,0,0,0,0,0,0,0,0,0,0,0,0,0,0,
0,0,0,0,0,0,0,0,0,0,0,0,0,0,0,0,0,0,0,0,0,0,0,0,0,0,0,0,0,0,0,0,
0,0,0,0,0,0,0,0,0,0,0,0,0,0,0,0,0,0,0,0,0,0,0,0,0,0,0,0,0,0,0,0,
0,0,0,0,0,0,0,0,0,0,0,0,0,0,0,0,0,0,0,0,0,0,0,0,0,0,0,0,0,0,0,0,
0,0,0,0,0,0,0,0,0,0,0,0,0,37,38,39,37,38,39,0,0,0,0,0,0,0,0,0,0,0,0,0,
0,0,0,0,0,0,0,0,0,0,0,0,0,101,102,103,101,102,103,0,0,0,0,0,0,0,0,0,0,0,0,0,
0,0,0,0,0,0,0,0,0,0,0,0,0,165,166,167,165,166,167,0,0,0,0,0,0,0,0,0,0,0,0,0,
0,0,0,0,0,0,0,0,0,0,0,0,0,0,0,0,0,0,0,0,0,0,0,0,0,0,0,0,0,0,0,0,
0,0,0,0,0,0,0,0,0,0,0,0,0,0,0,0,0,0,0,0,0,0,0,0,0,0,0,0,0,0,0,0,
0,0,0,0,0,0,0,0,0,0,0,0,0,0,0,0,0,0,0,0,0,0,0,0,0,0,0,0,0,0,0,0,
0,0,0,0,0,0,0,0,0,0,0,0,0,0,0,0,0,0,0,0,0,0,0,0,0,0,0,0,0,0,0,0,
0,0,0,0,0,0,0,0,0,0,0,0,0,0,0,0,0,0,0,0,0,0,0,0,0,0,0,0,0,0,0,0,
0,0,0,0,0,0,0,0,0,0,0,0,0,0,0,0,0,0,0,0,0,0,0,0,0,0,0,0,0,0,0,0,
0,0,0,0,0,0,0,0,0,0,0,0,0,0,0,0,0,1788,1788,0,0,0,0,0,0,0,0,0,0,0,0,0,
0,0,0,0,0,0,0,0,0,0,0,0,0,0,0,0,0,1322,1323,0,0,0,0,0,0,0,0,0,0,0,0,0,
0,0,0,0,0,0,0,0,0,0,0,0,0,0,0,0,0,1450,1451,0,0,0,0,0,0,0,0,0,0,0,0,0,
0,0,0,0,0,0,0,0,0,0,0,0,0,0,0,0,0,1578,1579,0,0,0,0,0,0,0,0,0,0,0,0,0,
0,0,0,0,0,0,0,0,0,0,0,0,0,0,0,1790,0,0,0,0,0,0,0,0,0,0,0,0,0,0,0,0,
0,0,0,0,0,0,0,0,0,0,0,0,0,0,0,0,0,0,0,0,0,0,0,0,0,0,0,0,0,0,0,0
</data>
 </layer>
 <layer id="6" name="CollisionMid" width="32" height="22">
  <data encoding="csv">
0,0,0,0,0,0,0,0,0,0,0,0,0,0,0,0,0,0,0,0,0,0,0,0,0,0,0,0,0,0,0,0,
0,0,0,0,0,0,0,0,0,0,0,0,0,0,0,0,0,0,0,0,0,0,0,0,0,0,0,0,0,0,0,0,
0,0,1609,0,0,0,0,0,0,0,0,0,0,0,0,0,0,0,0,0,0,0,0,0,0,0,0,0,0,0,0,0,
0,0,0,0,0,0,0,0,0,0,0,0,0,0,0,0,0,0,0,0,0,0,0,0,0,0,0,0,0,0,0,0,
0,0,0,0,0,0,0,0,0,0,0,0,0,0,1611,0,0,0,0,0,0,0,0,0,0,0,0,0,0,0,0,0,
0,0,0,0,0,0,0,0,0,0,0,0,0,0,0,0,0,0,0,0,0,0,0,0,0,0,912,913,914,0,0,0,
0,0,0,0,0,0,0,0,0,0,0,0,0,0,0,0,0,0,0,0,0,0,0,1613,1613,0,976,977,978,0,0,0,
0,0,0,0,0,0,0,0,0,0,0,0,0,0,0,0,0,0,0,0,0,0,0,0,0,0,1040,1041,1042,0,0,0,
0,0,0,0,0,0,0,0,0,0,0,0,0,0,0,0,0,0,0,0,0,0,0,0,0,0,0,0,0,0,0,0,
0,0,0,0,0,0,0,0,0,0,0,0,0,0,0,0,0,0,0,0,0,0,0,1613,1613,0,0,0,0,0,0,0,
0,0,0,0,0,0,0,0,0,0,0,0,0,0,0,1612,0,0,0,0,0,0,0,0,0,0,0,0,0,0,0,0,
0,0,0,0,0,0,0,0,0,0,0,0,0,0,0,0,0,0,0,0,0,0,0,0,0,0,0,0,0,0,0,0,
0,0,0,0,0,1610,0,0,0,0,0,0,0,0,0,0,0,0,0,0,0,0,0,0,0,0,0,0,0,0,0,0,
0,0,0,0,0,0,0,0,0,0,0,0,0,0,0,0,0,0,0,0,0,0,0,0,0,0,0,0,0,0,0,0,
0,0,0,0,0,0,0,0,0,0,0,0,0,0,0,0,0,0,0,0,0,0,0,0,0,0,0,0,0,0,0,0,
0,0,0,0,0,0,0,0,0,0,0,0,0,0,0,0,0,0,0,0,0,0,0,0,0,0,0,0,0,0,0,0,
0,0,0,0,0,0,0,0,0,0,0,0,0,0,0,0,0,0,0,0,0,0,0,0,0,0,0,0,0,0,0,0,
0,0,0,0,0,0,0,0,0,0,0,0,0,0,0,0,0,0,0,0,0,0,0,0,0,0,0,0,0,0,0,0,
0,0,0,0,0,0,0,0,0,0,0,0,0,0,0,0,0,0,0,0,0,0,0,0,0,0,0,0,0,0,0,0,
0,0,0,0,0,0,0,0,0,0,0,0,0,0,0,0,0,0,0,0,0,0,0,0,0,0,0,0,0,0,0,0,
0,0,0,0,0,0,0,0,0,0,0,0,0,0,0,0,0,0,0,0,0,0,0,0,0,0,0,0,0,0,0,0,
0,0,0,0,0,0,0,0,0,0,0,0,0,0,0,0,0,0,0,0,0,0,0,0,0,0,0,0,0,0,0,0
</data>
 </layer>
 <layer id="2" name="Collision" width="32" height="22" visible="0">
  <data encoding="csv">
0,0,0,0,0,0,0,0,0,0,0,0,0,0,0,0,0,0,0,0,0,0,0,0,0,0,0,0,0,0,0,0,
0,0,0,0,0,0,0,0,0,0,0,0,0,0,0,0,0,0,0,0,0,0,0,0,0,0,0,0,0,0,0,0,
0,1462,1463,229,230,231,0,0,0,0,0,0,0,0,0,0,0,0,0,0,0,0,0,0,0,0,1153,1154,1155,0,0,0,
0,0,0,0,0,0,0,0,0,0,0,0,0,0,0,0,0,0,0,0,0,0,0,0,0,0,1217,1218,1219,0,0,0,
0,0,0,0,0,0,0,0,0,0,0,0,0,0,0,0,0,0,0,0,0,0,0,0,0,0,1281,1282,1283,0,0,0,
0,0,0,0,0,0,1241,1242,0,0,0,0,0,0,0,0,0,0,0,0,0,0,0,0,0,0,1345,1346,1347,0,0,0,
0,0,0,0,0,0,1305,1306,0,0,0,0,0,0,0,0,0,0,0,0,0,0,0,0,0,0,1409,1097,1411,0,0,0,
0,0,0,0,0,0,0,0,0,0,0,0,0,0,0,0,0,0,39,0,1462,1463,0,0,0,0,0,0,0,1206,0,0,
0,0,0,0,0,0,0,0,0,0,0,0,0,0,0,0,0,0,0,0,0,0,0,0,0,0,0,0,0,0,0,0,
0,0,0,0,0,0,0,0,0,0,0,0,0,0,0,0,0,0,0,0,0,0,0,0,0,0,0,0,0,0,0,0,
0,0,0,0,0,0,0,0,0,0,0,0,0,229,230,231,229,230,231,0,0,0,0,0,0,0,0,0,0,0,0,0,
0,0,0,0,0,0,0,0,0,0,0,0,0,0,0,0,0,0,0,0,0,0,0,0,0,0,0,0,0,0,0,0,
0,0,0,0,0,0,0,0,0,0,0,0,0,0,0,0,0,0,0,0,0,0,0,0,0,0,0,0,0,0,0,0,
1593,184,184,1593,1593,0,0,0,0,0,0,0,0,0,0,0,0,0,0,0,0,0,0,0,0,0,0,0,0,0,0,0,
1593,184,184,1593,1593,0,0,0,0,0,0,0,0,0,0,0,0,0,0,0,0,0,0,0,0,0,0,0,0,0,0,0,
313,248,248,377,0,0,0,0,0,0,0,0,0,0,0,1722,1694,1722,1722,1694,0,0,0,0,0,0,0,0,0,0,0,0,
443,443,443,443,443,443,443,443,0,0,0,0,0,0,1206,1722,1758,0,0,1758,0,0,0,0,0,0,0,0,0,0,0,0,
443,443,443,443,0,0,0,0,0,0,0,0,1241,1242,0,1593,1593,0,0,1594,0,0,0,0,0,0,0,0,0,0,0,0,
0,0,0,0,442,314,314,314,0,0,0,0,1305,1306,0,1657,1643,0,0,0,0,0,0,0,0,0,0,0,0,0,0,0,
0,0,0,0,0,0,0,433,433,433,433,0,0,0,0,0,1453,0,0,2147485101,0,0,0,0,0,0,0,0,0,0,0,0,
0,28,0,0,0,0,0,433,433,433,433,0,0,0,0,0,0,0,0,0,0,0,0,0,0,0,0,0,0,0,0,0,
0,0,0,0,116,127,127,127,127,128,443,443,443,443,443,443,443,443,443,443,443,0,0,0,0,0,0,0,0,616,0,0
</data>
 </layer>
</map>
